web/themes/custom/oh_my_pasta/images/icons/email.svg

<svg width="48" height="48" viewBox="0 0 48 48" fill="none" xmlns="http://www.w3.org/2000/svg">
<g clip-path="url(#clip0_3251_4367)">
<rect width="48" height="48" rx="8" fill="#004A36"/>
<path d="M29.3266 25.4942L26.3115 28.5195C25.0889 29.7464 22.9376 29.7729 21.6885 28.5195L18.6733 25.4942L7.84402 36.3586C8.24712 36.545 8.69156 36.6562 9.16406 36.6562H38.8359C39.3084 36.6562 39.7527 36.5452 40.1557 36.3587L29.3266 25.4942Z" fill="white"/>
<path d="M38.8359 11.3438H9.16406C8.69156 11.3438 8.24712 11.455 7.84416 11.6414L19.416 23.2516L19.4184 23.2533L19.4194 23.2551L23.182 27.0302C23.5816 27.4298 24.4185 27.4298 24.8182 27.0302L28.58 23.2557L28.5817 23.2533L28.5842 23.2516L40.1557 11.6413C39.7527 11.4548 39.3084 11.3438 38.8359 11.3438Z" fill="white"/>
<path d="M6.33652 13.1165C6.12797 13.5382 6 14.0063 6 14.5078V33.4922C6 33.9937 6.12783 34.4618 6.33645 34.8835L17.1845 24.0004L6.33652 13.1165Z" fill="white"/>
<path d="M41.6635 13.1163L30.8156 24.0004L41.6635 34.8837C41.872 34.4619 42 33.9938 42 33.4922V14.5078C42 14.0062 41.872 13.5381 41.6635 13.1163Z" fill="white"/>
</g>
<defs>
<clipPath id="clip0_3251_4367">
<rect width="48" height="48" fill="white"/>
</clipPath>
</defs>
</svg>

<svg width="48" height="48" fill="none" xmlns="http://www.w3.org/2000/svg"><g clip-path="url(#clip0_3251_4367)"><rect width="48" height="48" rx="8" fill="#004A36"/><path d="M29.327 25.494L26.31 28.52c-1.222 1.226-3.373 1.253-4.622 0l-3.016-3.026L7.844 36.36a3.14 3.14 0 001.32.297h29.672a3.13 3.13 0 001.32-.297l-10.83-10.865z" fill="#fff"/><path d="M38.836 11.344H9.164a3.14 3.14 0 00-1.32.297l11.572 11.61.002.002.001.002 3.763 3.775c.4.4 1.237.4 1.636 0l3.762-3.774.002-.003.002-.001 11.572-11.61a3.13 3.13 0 00-1.32-.298zM6.337 13.117c-.209.421-.337.89-.337 1.39v18.985c0 .502.128.97.336 1.392L17.185 24 6.336 13.117zm35.326-.001L30.816 24l10.848 10.884c.208-.422.336-.89.336-1.392V14.508c0-.502-.128-.97-.337-1.392z" fill="#fff"/></g><defs><clipPath id="clip0_3251_4367"><path fill="#fff" d="M0 0h48v48H0z"/></clipPath></defs></svg>
